X:1
T:Miss Maule's Strathspey
T:Miss Maule's Strathspey
T:Robert Mackintosh
C:Robert Mackintosh
L:1/8
Q:1/8=128
M:4/4
K:A
V:1 treble 
V:1
|: E | c2 A>E F<A E<C | c2 A>E F<B B>d | c>B A>E F<A E<C | D<F E>G A/A/A AE | c2 A>E F<A E<C | %6
 c2 A>E F<B B>d | c>B A>E F<A E<C | D<F E>G A/A/A Ae | c<e a>e f>a e>d | c<e a>c d<B B>d | %11
 c<e a>e f>a e>c | d<f e>d c<A A>e | c<e a>e f>a e>d | c<e a>c d<B Bc/d/ | c<e d<f e<a g<b | %16
 a>f e>d c<A A :| %17

